src/main/resources/icons/UIDesignerIcons/com/intellij/uiDesigner/icons/splitPane.svg

<svg xmlns="http://www.w3.org/2000/svg" width="16" height="16" viewBox="0 0 16 16"><rect id="frame" width="16" height="16" fill="none"/><path fill="#9AA7B0" fill-opacity=".8" fill-rule="evenodd" d="M6 2v1H3v10h3v1H2V2h4zm4 0h4v12h-4v-1h3V3h-3V2zM7 1h2v14H7V1z"/></svg>

<svg xmlns="http://www.w3.org/2000/svg" width="16" height="16" viewBox="0 0 16 16">
  <path fill="#9AA7B0" fill-opacity=".8" fill-rule="evenodd" d="M6,2 L6,3 L3,3 L3,13 L6,13 L6,14 L2,14 L2,2 L6,2 Z M10,2 L14,2 L14,14 L10,14 L10,13 L13,13 L13,3 L10,3 L10,2 Z M7,1 L9,1 L9,15 L7,15 L7,1 Z"/>
</svg>
